UI/Discovery-Sharing/SVG/maps-update_outline_24px.svg

<svg width="24" height="24" viewBox="0 0 24 24" fill="none" xmlns="http://www.w3.org/2000/svg">
<path d="M12 22H4C3.46957 22 2.96086 21.7893 2.58579 21.4142C2.21071 21.0391 2 20.5304 2 20V4C2 3.46957 2.21071 2.96086 2.58579 2.58579C2.96086 2.21071 3.46957 2 4 2H20C20.5304 2 21.0391 2.21071 21.4142 2.58579C21.7893 2.96086 22 3.46957 22 4V12H20V11.79L19.79 12H15.59L13.44 9.85L14.86 8.43L17.69 11.25L19.15 9.79L14.21 4.84L10.62 8.44L9.2 7L12.2 4H4.07L12.07 12H12V14.78L4 6.78V12.22L5.66 10.56L7.08 12L4 15.06V20H8.94L12 16.94V19.79L11.79 20H12V22ZM16.21 4L20 7.79V4H16.21ZM18 16C18.3956 16 18.7822 16.1173 19.1111 16.3371C19.44 16.5568 19.6964 16.8692 19.8478 17.2346C19.9991 17.6001 20.0387 18.0022 19.9616 18.3902C19.8844 18.7781 19.6939 19.1345 19.4142 19.4142C19.1345 19.6939 18.7781 19.8844 18.3902 19.9616C18.0022 20.0387 17.6001 19.9991 17.2346 19.8478C16.8692 19.6964 16.5568 19.44 16.3371 19.1111C16.1173 18.7822 16 18.3956 16 18C16 17.4696 16.2107 16.9609 16.5858 16.5858C16.9609 16.2107 17.4696 16 18 16V16ZM18 14C17.2089 14 16.4355 14.2346 15.7777 14.6741C15.1199 15.1136 14.6072 15.7384 14.3045 16.4693C14.0017 17.2002 13.9225 18.0044 14.0769 18.7804C14.2312 19.5563 14.6122 20.269 15.1716 20.8284C15.731 21.3878 16.4437 21.7688 17.2196 21.9231C17.9956 22.0775 18.7998 21.9983 19.5307 21.6955C20.2616 21.3928 20.8864 20.8801 21.3259 20.2223C21.7654 19.5645 22 18.7911 22 18C22 16.9391 21.5786 15.9217 20.8284 15.1716C20.0783 14.4214 19.0609 14 18 14V14Z" fill="#0F1621"/>
</svg>

<svg xmlns="http://www.w3.org/2000/svg" width="24" height="24" viewBox="0 0 24 24"><rect width="24" height="24" style="fill:none"/><path d="M12,22H4a2,2,0,0,1-2-2V4A2,2,0,0,1,4,2H20a2,2,0,0,1,2,2v8H20v-.21l-.21.21h-4.2L13.44,9.85l1.42-1.42,2.83,2.82,1.46-1.46L14.21,4.84l-3.59,3.6L9.2,7l3-3H4.07l8,8H12v2.78l-8-8v5.44l1.66-1.66L7.08,12,4,15.06V20H8.94L12,16.94v2.85l-.21.21H12ZM16.21,4,20,7.79V4ZM18,16a2,2,0,1,1-2,2,2,2,0,0,1,2-2m0-2a4,4,0,1,0,4,4,4,4,0,0,0-4-4Z"/></svg>
